entry/src/main/resources/rawfile/ic_learn.svg

<svg width="24" height="24" viewBox="0 0 24 24" fill="none" xmlns="http://www.w3.org/2000/svg">
<mask id="mask0_321_8" style="mask-type:alpha" maskUnits="userSpaceOnUse" x="0" y="0" width="24" height="24">
<rect width="24" height="24" fill="#D9D9D9"/>
</mask>
<g mask="url(#mask0_321_8)">
<path d="M5.7 12.575H8.3L8.775 13.9C8.80833 14 8.86667 14.0792 8.95 14.1375C9.03333 14.1958 9.13333 14.225 9.25 14.225C9.43333 14.225 9.57917 14.15 9.6875 14C9.79583 13.85 9.81667 13.6917 9.75 13.525L7.7 8.125C7.66667 8.025 7.60417 7.94167 7.5125 7.875C7.42083 7.80833 7.31667 7.775 7.2 7.775H6.8C6.68333 7.775 6.57917 7.80833 6.4875 7.875C6.39583 7.94167 6.33333 8.025 6.3 8.125L4.25 13.525C4.18333 13.6917 4.20417 13.85 4.3125 14C4.42083 14.15 4.56667 14.225 4.75 14.225C4.86667 14.225 4.97083 14.1958 5.0625 14.1375C5.15417 14.0792 5.21667 13.9917 5.25 13.875L5.7 12.575ZM6.025 11.65L6.975 8.975H7.025L7.975 11.65H6.025ZM6.5 16C7.28333 16 8.04583 16.0875 8.7875 16.2625C9.52917 16.4375 10.2667 16.7 11 17.05V7.2C10.3167 6.8 9.59167 6.5 8.825 6.3C8.05833 6.1 7.28333 6 6.5 6C5.9 6 5.30417 6.05833 4.7125 6.175C4.12083 6.29167 3.55 6.46667 3 6.7V16.6C3.58333 16.4 4.1625 16.25 4.7375 16.15C5.3125 16.05 5.9 16 6.5 16ZM13 17.05C13.7333 16.7 14.4708 16.4375 15.2125 16.2625C15.9542 16.0875 16.7167 16 17.5 16C18.1 16 18.6875 16.05 19.2625 16.15C19.8375 16.25 20.4167 16.4 21 16.6V6.7C20.45 6.46667 19.8792 6.29167 19.2875 6.175C18.6958 6.05833 18.1 6 17.5 6C16.7167 6 15.9417 6.1 15.175 6.3C14.4083 6.5 13.6833 6.8 13 7.2V17.05ZM12 19.475C11.7667 19.475 11.5458 19.4458 11.3375 19.3875C11.1292 19.3292 10.9333 19.25 10.75 19.15C10.1 18.7667 9.41667 18.4792 8.7 18.2875C7.98333 18.0958 7.25 18 6.5 18C5.8 18 5.1125 18.0917 4.4375 18.275C3.7625 18.4583 3.11667 18.7167 2.5 19.05C2.15 19.2333 1.8125 19.225 1.4875 19.025C1.1625 18.825 1 18.5333 1 18.15V6.1C1 5.91667 1.04583 5.74167 1.1375 5.575C1.22917 5.40833 1.36667 5.28333 1.55 5.2C2.31667 4.8 3.11667 4.5 3.95 4.3C4.78333 4.1 5.63333 4 6.5 4C7.46667 4 8.4125 4.125 9.3375 4.375C10.2625 4.625 11.15 5 12 5.5C12.85 5 13.7375 4.625 14.6625 4.375C15.5875 4.125 16.5333 4 17.5 4C18.3667 4 19.2167 4.1 20.05 4.3C20.8833 4.5 21.6833 4.8 22.45 5.2C22.6333 5.28333 22.7708 5.40833 22.8625 5.575C22.9542 5.74167 23 5.91667 23 6.1V18.15C23 18.5333 22.8375 18.825 22.5125 19.025C22.1875 19.225 21.85 19.2333 21.5 19.05C20.8833 18.7167 20.2375 18.4583 19.5625 18.275C18.8875 18.0917 18.2 18 17.5 18C16.75 18 16.0167 18.0958 15.3 18.2875C14.5833 18.4792 13.9 18.7667 13.25 19.15C13.0667 19.25 12.8708 19.3292 12.6625 19.3875C12.4542 19.4458 12.2333 19.475 12 19.475ZM14 8.775C14 8.625 14.0542 8.47083 14.1625 8.3125C14.2708 8.15417 14.3917 8.05 14.525 8C15.0083 7.83333 15.4917 7.70833 15.975 7.625C16.4583 7.54167 16.9667 7.5 17.5 7.5C17.8333 7.5 18.1625 7.52083 18.4875 7.5625C18.8125 7.60417 19.1333 7.65833 19.45 7.725C19.6 7.75833 19.7292 7.84167 19.8375 7.975C19.9458 8.10833 20 8.25833 20 8.425C20 8.70833 19.9083 8.91667 19.725 9.05C19.5417 9.18333 19.3083 9.21667 19.025 9.15C18.7917 9.1 18.5458 9.0625 18.2875 9.0375C18.0292 9.0125 17.7667 9 17.5 9C17.0667 9 16.6417 9.04167 16.225 9.125C15.8083 9.20833 15.4083 9.31667 15.025 9.45C14.725 9.56667 14.4792 9.55833 14.2875 9.425C14.0958 9.29167 14 9.075 14 8.775ZM14 14.275C14 14.125 14.0542 13.9708 14.1625 13.8125C14.2708 13.6542 14.3917 13.55 14.525 13.5C15.0083 13.3333 15.4917 13.2083 15.975 13.125C16.4583 13.0417 16.9667 13 17.5 13C17.8333 13 18.1625 13.0208 18.4875 13.0625C18.8125 13.1042 19.1333 13.1583 19.45 13.225C19.6 13.2583 19.7292 13.3417 19.8375 13.475C19.9458 13.6083 20 13.7583 20 13.925C20 14.2083 19.9083 14.4167 19.725 14.55C19.5417 14.6833 19.3083 14.7167 19.025 14.65C18.7917 14.6 18.5458 14.5625 18.2875 14.5375C18.0292 14.5125 17.7667 14.5 17.5 14.5C17.0667 14.5 16.6417 14.5375 16.225 14.6125C15.8083 14.6875 15.4083 14.7917 15.025 14.925C14.725 15.0417 14.4792 15.0375 14.2875 14.9125C14.0958 14.7875 14 14.575 14 14.275ZM14 11.525C14 11.375 14.0542 11.2208 14.1625 11.0625C14.2708 10.9042 14.3917 10.8 14.525 10.75C15.0083 10.5833 15.4917 10.4583 15.975 10.375C16.4583 10.2917 16.9667 10.25 17.5 10.25C17.8333 10.25 18.1625 10.2708 18.4875 10.3125C18.8125 10.3542 19.1333 10.4083 19.45 10.475C19.6 10.5083 19.7292 10.5917 19.8375 10.725C19.9458 10.8583 20 11.0083 20 11.175C20 11.4583 19.9083 11.6667 19.725 11.8C19.5417 11.9333 19.3083 11.9667 19.025 11.9C18.7917 11.85 18.5458 11.8125 18.2875 11.7875C18.0292 11.7625 17.7667 11.75 17.5 11.75C17.0667 11.75 16.6417 11.7917 16.225 11.875C15.8083 11.9583 15.4083 12.0667 15.025 12.2C14.725 12.3167 14.4792 12.3083 14.2875 12.175C14.0958 12.0417 14 11.825 14 11.525Z" fill="#FFD728"/>
</g>
</svg>

<svg xmlns="http://www.w3.org/2000/svg" width="24" height="24" fill="none" viewBox="0 0 24 24">
  <mask id="a" width="24" height="24" x="0" y="0" maskUnits="userSpaceOnUse" style="mask-type:alpha">
    <path fill="#D9D9D9" d="M0 0h24v24H0z"/>
  </mask>
  <g mask="url(#a)">
    <path fill="#fff" d="M5.7 12.575h2.6l.475 1.325c.033.1.092.18.175.237a.51.51 0 0 0 .3.088c.183 0 .33-.075.438-.225a.468.468 0 0 0 .062-.475l-2.05-5.4a.5.5 0 0 0-.188-.25.518.518 0 0 0-.312-.1h-.4a.518.518 0 0 0-.313.1.5.5 0 0 0-.187.25l-2.05 5.4a.468.468 0 0 0 .063.475c.108.15.254.225.437.225a.57.57 0 0 0 .313-.088.44.44 0 0 0 .187-.262l.45-1.3Zm.325-.925.95-2.675h.05l.95 2.675h-1.95ZM6.5 16a9.92 9.92 0 0 1 2.287.262c.742.175 1.48.438 2.213.788V7.2c-.683-.4-1.408-.7-2.175-.9a9.175 9.175 0 0 0-4.112-.125A8.665 8.665 0 0 0 3 6.7v9.9c.583-.2 1.162-.35 1.737-.45C5.313 16.05 5.9 16 6.5 16Zm6.5 1.05c.733-.35 1.47-.613 2.213-.788a10.268 10.268 0 0 1 4.05-.113c.575.101 1.154.251 1.737.451V6.7a8.664 8.664 0 0 0-1.712-.525 9.218 9.218 0 0 0-4.113.125c-.767.2-1.492.5-2.175.9v9.85Zm-1 2.425c-.233 0-.454-.03-.662-.088a2.796 2.796 0 0 1-.588-.237 8.182 8.182 0 0 0-2.05-.862A8.477 8.477 0 0 0 6.5 18c-.7 0-1.388.092-2.063.275a9.05 9.05 0 0 0-1.937.775c-.35.183-.688.175-1.012-.025A.966.966 0 0 1 1 18.15V6.1c0-.183.046-.358.137-.525A.863.863 0 0 1 1.55 5.2c.767-.4 1.567-.7 2.4-.9.833-.2 1.683-.3 2.55-.3A10.78 10.78 0 0 1 12 5.5 10.78 10.78 0 0 1 17.5 4c.867 0 1.717.1 2.55.3.833.2 1.633.5 2.4.9.183.083.32.208.413.375.091.167.137.342.137.525v12.05a.966.966 0 0 1-.488.875c-.325.2-.662.208-1.012.025a9.05 9.05 0 0 0-1.938-.775A7.836 7.836 0 0 0 17.5 18c-.75 0-1.483.096-2.2.288a8.16 8.16 0 0 0-2.05.862c-.183.1-.38.18-.588.238a2.456 2.456 0 0 1-.662.087Zm2-10.7a.82.82 0 0 1 .162-.463.79.79 0 0 1 .363-.312 9.281 9.281 0 0 1 1.45-.375A8.969 8.969 0 0 1 17.5 7.5c.333 0 .663.02.988.063.325.041.645.095.962.162.15.033.28.117.387.25a.695.695 0 0 1 .163.45c0 .283-.092.492-.275.625-.183.133-.417.167-.7.1a6.516 6.516 0 0 0-.737-.113A8.17 8.17 0 0 0 17.5 9c-.433 0-.858.042-1.275.125a9.05 9.05 0 0 0-1.2.325c-.3.117-.546.108-.738-.025-.191-.133-.287-.35-.287-.65Zm0 5.5a.82.82 0 0 1 .162-.463.79.79 0 0 1 .363-.312 9.274 9.274 0 0 1 1.45-.375A8.972 8.972 0 0 1 17.5 13c.333 0 .663.02.988.063.325.041.645.095.962.162.15.033.28.117.387.25a.695.695 0 0 1 .163.45c0 .283-.092.492-.275.625-.183.133-.417.167-.7.1a6.516 6.516 0 0 0-.737-.113 8.17 8.17 0 0 0-.788-.037c-.433 0-.858.037-1.275.113a7.933 7.933 0 0 0-1.2.312c-.3.117-.546.112-.738-.013-.191-.125-.287-.337-.287-.637Zm0-2.75a.82.82 0 0 1 .162-.463.79.79 0 0 1 .363-.312 9.274 9.274 0 0 1 1.45-.375 8.972 8.972 0 0 1 1.525-.125c.333 0 .663.02.988.063.325.041.645.095.962.162.15.033.28.117.387.25a.695.695 0 0 1 .163.45c0 .283-.092.492-.275.625-.183.133-.417.167-.7.1a6.516 6.516 0 0 0-.737-.113 8.17 8.17 0 0 0-.788-.037c-.433 0-.858.042-1.275.125a9.05 9.05 0 0 0-1.2.325c-.3.117-.546.108-.738-.025-.191-.133-.287-.35-.287-.65Z"/>
  </g>
</svg>
